gtk/icons/gesture-two-finger-swipe-right-symbolic.svg

<svg
        xmlns='http://www.w3.org/2000/svg'
        xmlns:svg='http://www.w3.org/2000/svg'
        width='64'
        height='64'>
  <path
          clip-path='none'
          fill='url(#gpa:foreground) rgb(0,0,0)'
          fill-opacity='1'
          fill-rule='nonzero'
          d='M 51 5.146 L 51 12.146 L 36.52 12.146 C 35.651 9.566, 33.64 7.403, 30.88 6.471 C 29.7632 6.09254, 28.5825 5.93892, 27.406 6.019 C 24.1791 6.24135, 21.3172 8.17153, 19.902 11.08 C 19.1843 10.9846, 18.4575 10.9772, 17.738 11.058 C 14.283 11.466, 11.221 13.87, 10.156 17.394 C 8.849 21.724, 10.994 26.31, 15 28.162 L 15 46.998 L 14 46.998 L 14 39.183 C 14 36.865, 12.216 34.998, 10 34.998 C 7.784 34.998, 6 36.865, 6 39.183 L 6 59.998 L 46 59.998 C 48.216 59.998, 50 58.131, 50 55.812 L 50 34.183 C 50 31.865, 48.216 29.998, 46 29.998 C 43.784 29.998, 42 31.865, 42 34.183 L 42 38.998 L 41 38.998 L 41 28.183 C 41 25.865, 39.216 23.998, 37 23.998 C 34.784 23.998, 33 25.865, 33 28.183 L 33 38.998 L 32 38.998 L 32 23.19 C 34.2115 22.0982, 35.8765 20.1446, 36.604 17.788 C 36.654 17.624, 36.688 17.46, 36.729 17.295 L 51 17.295 L 51 24.295 L 61 14.795 L 51 5.295 Z M 28.172 8.996 C 28.752 9.014, 29.34 9.116, 29.92 9.312 C 32.3225 10.1154, 33.9574 12.3461, 34 14.879 L 34 15.111 C 33.97 16.7795, 33.2451 18.3599, 32 19.471 L 32 15.183 C 32 12.865, 30.216 10.998, 28 10.998 C 25.784 10.998, 24 12.865, 24 15.183 L 24 22.943 C 23.7295 23.4263, 23.3929 23.8696, 23 24.26 L 23 20.183 C 23 17.865, 21.216 15.998, 19 15.998 C 16.784 15.998, 15 17.865, 15 20.183 L 15 24.666 C 13.0949 23.1364, 12.3134 20.6007, 13.027 18.264 C 13.9667 15.1115, 17.2763 13.3099, 20.434 14.232 C 20.8637 14.362, 21.329 14.2926, 21.7022 14.043 C 22.0753 13.7934, 22.3171 13.3898, 22.361 12.943 L 22.371 12.92 C 23.2558 10.4977, 25.5944 8.91581, 28.172 8.996 Z M 180 -470.148 M 24 27.3031 L 24 39.0001 L 23 39.0001 L 23 27.9281 C 23.3465 27.7416, 23.6805 27.5328, 24 27.3031 Z'
          class='foreground foreground-fill'>
  </path>
</svg>

<?xml version="1.0" encoding="UTF-8" standalone="no"?>
<svg width="64" height="64">
  <path
     d="M51, 5.146 v7h-14.48c-.869-2.58-2.88-4.743-5.64-5.675a8.934 8.934 0 0 0-3.474-.452 9.036 9.036 0 0 0-7.504 5.061 8.893 8.893 0 0 0-2.164-.022c-3.455.408-6.517 2.812-7.582 6.336-1.307 4.33.838 8.916 4.844 10.768v18.836h-1v-7.815c0-2.318-1.784-4.185-4-4.185s-4 1.867-4 4.185v20.815h40c2.216 0 4-1.867 4-4.186v-21.629c0-2.318-1.784-4.185-4-4.185s-4 1.867-4 4.185v4.815h-1v-10.815c0-2.318-1.784-4.185-4-4.185s-4 1.867-4 4.185v10.815h-1V23.19a8.978 8.978 0 0 0 4.604-5.402c.05-.164.084-.328.125-.493H51v7l10-9.5-10-9.5zm-22.828 3.85c.58.018 1.168.12 1.748.316a5.976 5.976 0 0 1 4.08 5.567v.232a5.988 5.988 0 0 1-2 4.36v-4.288c0-2.318-1.784-4.185-4-4.185s-4 1.867-4 4.185v7.76a5.961 5.961 0 0 1-1 1.317v-4.077c0-2.318-1.784-4.185-4-4.185s-4 1.867-4 4.185v4.483a5.973 5.973 0 0 1-1.973-6.402 5.98 5.98 0 0 1 7.407-4.032 1.5 1.5 0 0 0 1.927-1.289 1.5 1.5 0 0 0 .01-.023 5.978 5.978 0 0 1 5.801-3.924zM180, -470.14793 m-156 497.451v11.697h-1v-11.072a9.11 9.11 0 0 0 1-.625z"
     fill-rule="winding"/>
</svg>
